assets/icons/24px/stroke/arrow-bend-left-down-24px.svg

<svg width="24" height="24" viewBox="0 0 24 24" fill="none" xmlns="http://www.w3.org/2000/svg">
<path fill-rule="evenodd" clip-rule="evenodd" d="M12.5088 8.72836C13.0174 8.5177 13.5971 8.5 15.3137 8.5H21C21.5523 8.5 22 8.05228 22 7.5C22 6.94771 21.5523 6.5 21 6.5H15.3137C15.2495 6.5 15.1861 6.49997 15.1236 6.49994C13.6732 6.49924 12.6653 6.49876 11.7434 6.8806C10.8216 7.26243 10.1092 7.97549 9.08415 9.00155C9.03995 9.04579 8.99516 9.09062 8.94975 9.13603L4 14.0858V8.5C4 7.94771 3.55228 7.5 3 7.5C2.44772 7.5 2 7.94771 2 8.5V16.5C2 17.0523 2.44772 17.5 3 17.5H11C11.5523 17.5 12 17.0523 12 16.5C12 15.9477 11.5523 15.5 11 15.5L5.41422 15.5L10.364 10.5502C11.5778 9.33643 12.0002 8.93902 12.5088 8.72836Z" fill="white"/>
</svg>

<svg width="24" height="24" fill="none" xmlns="http://www.w3.org/2000/svg"><path fill-rule="evenodd" clip-rule="evenodd" d="M12.509 8.728c.508-.21 1.088-.228 2.805-.228H21a1 1 0 1 0 0-2h-5.876c-1.45 0-2.459-.001-3.38.38-.922.382-1.635 1.095-2.66 2.122l-.134.134L4 14.086V8.5a1 1 0 1 0-2 0v8a1 1 0 0 0 1 1h8a1 1 0 1 0 0-2H5.414l4.95-4.95C11.578 9.336 12 8.94 12.509 8.728z" fill="#fff"/></svg>
